X: 23
T: Out On The Ocean
Z: b
S: https://thesession.org/tunes/108#setting46052
R: jig
M: 6/8
L: 1/8
K: Gmaj
|:GE|"G"D2B BAG|BdB "D7"A2B|"C"GED G2A|"Em"B2B "D7"AGE|
"G"D2B BAG|BdB "D7"A2B|"C"GED G2A|"Csus2/D"BGF G:|
Bd|"Em"e2e edB|ege edB|"Bm"d2B def|gfe dBA|
"G"G2A B2d|"C"ege dBA|"Em"GED G2A|"Csus2/D"BGF G:|

